X: 40051
T: Throw Away The Keys
R: reel
M: 4/4
K: Dmajor
A3B defa|a2fd efdB|A3B defe|dBAF EFDB:|
a3f defa|a2fd efdB|a3f defe|dBAF EFDB|
a3f defa|a2fd efdB|A3B defe|dBAF EFDB|

